src/assets/user_avatars/volunteer-avatar.svg

<svg fill="none" height="104" viewBox="0 0 75 104" width="75" xmlns="http://www.w3.org/2000/svg" xmlns:xlink="http://www.w3.org/1999/xlink"><mask id="a" height="104" maskUnits="userSpaceOnUse" width="75" x="0" y="0"><path d="m0 7.99999c0-4.41828 3.58172-7.99999 8-7.99999h58.1037c4.4182 0 7.9999 3.58172 7.9999 8v95.272h-74.1036z" fill="#ffeaff"/></mask><g mask="url(#a)"><path d="m11.8694 90.8137s3.2745-12.26 21.2773-12.26 21.3092 12.7021 21.3092 12.7021" fill="#f9bef9"/><path d="m64 50h-60v59h60z" fill="#76e5fd" stroke="#000" stroke-miterlimit="10" stroke-width="2"/><path d="m37.8608 76.938s-.8523 3.1056-4.5971 3.1056-4.5971-3.1056-4.5971-3.1056" fill="#76e5fd"/><path d="m37.8608 76.938s-.8523 3.1056-4.5971 3.1056-4.5971-3.1056-4.5971-3.1056" stroke="#000" stroke-linecap="round" stroke-linejoin="round" stroke-miterlimit="10" stroke-width="2"/><path d="m42.3092 71.072s.6047-2.2053 3.2675-2.2053c2.6627 0 3.2674 2.2053 3.2674 2.2053" fill="#76e5fd"/><path d="m42.3092 71.072s.6047-2.2053 3.2675-2.2053c2.6627 0 3.2674 2.2053 3.2674 2.2053" stroke="#000" stroke-linecap="round" stroke-linejoin="round" stroke-miterlimit="10" stroke-width="2"/><path d="m18.3939 71.072s.6047-2.2053 3.2675-2.2053c2.6627 0 3.2674 2.2053 3.2674 2.2053" fill="#76e5fd"/><g stroke="#000" stroke-width="2"><path d="m18.3939 71.072s.6047-2.2053 3.2675-2.2053c2.6627 0 3.2674 2.2053 3.2674 2.2053" stroke-linecap="round" stroke-linejoin="round" stroke-miterlimit="10"/><path d="m64 48.0648v3.9352c0 .5523-.4477 1-1 1h-58c-.55228 0-1-.4477-1-1v-3.8592c0-1.8193 1.00033-3.4784 2.53453-4.4562 9.40157-5.9917 15.88487-14.6348 17.71277-19.0197.1649-.3955.541-.6649.9696-.6649h16.8939c.5071 0 .9282.3773 1.0728.8634 1.5531 5.2226 11.3996 14.0891 18.3915 18.7976 1.4754.9935 2.4249 2.6251 2.4249 4.4038z" fill="#343440" stroke-linecap="square"/><path d="m25 8.399v14.601c0 .5523.4477 1 1 1h15c.5523 0 1-.4477 1-1v-9.4694c0-.4276-.2718-.8078-.6763-.9462l-15-5.13156c-.649-.22201-1.3237.26029-1.3237.94616z" fill="#76e5fd" stroke-linecap="square"/></g></g></svg>

<svg width="75" height="104" viewBox="0 0 75 104" fill="none" xmlns="http://www.w3.org/2000/svg">
<mask id="mask0_5562_541" style="mask-type:alpha" maskUnits="userSpaceOnUse" x="0" y="0" width="75" height="104">
<path d="M0 7.99999C0 3.58171 3.58172 0 8 0H66.1037C70.5219 0 74.1036 3.58172 74.1036 8V103.272H0V7.99999Z" fill="#FFEAFF"/>
</mask>
<g mask="url(#mask0_5562_541)">
<path d="M11.8694 90.8137C11.8694 90.8137 15.1439 78.5537 33.1467 78.5537C51.1495 78.5537 54.4559 91.2558 54.4559 91.2558" fill="#F9BEF9"/>
<path d="M64 50H4V109H64V50Z" fill="#76E5FD" stroke="black" stroke-width="2" stroke-miterlimit="10"/>
<path d="M37.8608 76.938C37.8608 76.938 37.0085 80.0436 33.2637 80.0436C29.5189 80.0436 28.6666 76.938 28.6666 76.938" fill="#76E5FD"/>
<path d="M37.8608 76.938C37.8608 76.938 37.0085 80.0436 33.2637 80.0436C29.5189 80.0436 28.6666 76.938 28.6666 76.938" stroke="black" stroke-width="2" stroke-miterlimit="10" stroke-linecap="round" stroke-linejoin="round"/>
<path d="M42.3092 71.072C42.3092 71.072 42.9139 68.8667 45.5767 68.8667C48.2394 68.8667 48.8441 71.072 48.8441 71.072" fill="#76E5FD"/>
<path d="M42.3092 71.072C42.3092 71.072 42.9139 68.8667 45.5767 68.8667C48.2394 68.8667 48.8441 71.072 48.8441 71.072" stroke="black" stroke-width="2" stroke-miterlimit="10" stroke-linecap="round" stroke-linejoin="round"/>
<path d="M18.3939 71.072C18.3939 71.072 18.9986 68.8667 21.6614 68.8667C24.3241 68.8667 24.9288 71.072 24.9288 71.072" fill="#76E5FD"/>
<path d="M18.3939 71.072C18.3939 71.072 18.9986 68.8667 21.6614 68.8667C24.3241 68.8667 24.9288 71.072 24.9288 71.072" stroke="black" stroke-width="2" stroke-miterlimit="10" stroke-linecap="round" stroke-linejoin="round"/>
<path d="M64 48.0648V52C64 52.5523 63.5523 53 63 53H5C4.44772 53 4 52.5523 4 52V48.1408C4 46.3215 5.00033 44.6624 6.53453 43.6846C15.9361 37.6929 22.4194 29.0498 24.2473 24.6649C24.4122 24.2694 24.7883 24 25.2169 24H42.1108C42.6179 24 43.039 24.3773 43.1836 24.8634C44.7367 30.086 54.5832 38.9525 61.5751 43.661C63.0505 44.6545 64 46.2861 64 48.0648Z" fill="#343440" stroke="black" stroke-width="2" stroke-linecap="square"/>
<path d="M25 8.399V23C25 23.5523 25.4477 24 26 24H41C41.5523 24 42 23.5523 42 23V13.5306C42 13.103 41.7282 12.7228 41.3237 12.5844L26.3237 7.45284C25.6747 7.23083 25 7.71313 25 8.399Z" fill="#76E5FD" stroke="black" stroke-width="2" stroke-linecap="square"/>
</g>
</svg>
